icons/tokens/0x853d955aCEf822Db058eb8505911ED77F175b99e/logo.svg

<svg width="32" height="32" viewBox="0 0 32 32" fill="none" xmlns="http://www.w3.org/2000/svg">
<path fill-rule="evenodd" clip-rule="evenodd" d="M32 16C32 7.17152 24.8285 0 16 0C7.17152 0 0 7.17152 0 16C0 24.8285 7.17152 32 16 32C24.8285 32 32 24.8285 32 16Z" fill="white"/>
<path fill-rule="evenodd" clip-rule="evenodd" d="M8.51737 26L11.4183 23.0991C14.2074 24.8991 17.7926 24.8991 20.5817 23.0991L23.4826 26L26 23.4826L23.0991 20.5817C24.8991 17.7926 24.8991 14.2074 23.0991 11.4183L26 8.51736L23.4826 5.99999L20.5817 8.90094C17.7926 7.10086 14.2074 7.10086 11.4183 8.90094L8.51737 5.99999L6 8.51736L8.90094 11.4183C7.10086 14.2074 7.10086 17.7926 8.90094 20.5817L6 23.4826L8.51737 26ZM16 10.8905C18.8193 10.8905 21.1095 13.1807 21.1095 16C21.1095 18.8193 18.8193 21.1095 16 21.1095C13.1807 21.1095 10.8905 18.8193 10.8905 16C10.8905 13.1807 13.1807 10.8905 16 10.8905Z" fill="black"/>
</svg>

<svg fill="none" viewBox="0 0 32 32"><path fill="#fff" fill-rule="evenodd" d="M32 16c0-8.828-7.172-16-16-16S0 7.172 0 16s7.172 16 16 16 16-7.172 16-16z" clip-rule="evenodd"/><path fill="#000" fill-rule="evenodd" d="M8.517 26l2.901-2.9a8.45 8.45 0 009.164 0l2.9 2.9L26 23.483l-2.9-2.901a8.45 8.45 0 000-9.164l2.9-2.9L23.483 6l-2.901 2.9a8.45 8.45 0 00-9.164 0L8.518 6 6 8.517l2.9 2.901a8.45 8.45 0 000 9.164l-2.9 2.9L8.517 26zM16 10.89c2.82 0 5.11 2.29 5.11 5.11 0 2.82-2.29 5.11-5.11 5.11-2.82 0-5.11-2.29-5.11-5.11 0-2.82 2.29-5.11 5.11-5.11z" clip-rule="evenodd"/></svg>
